X: 13212
T: Auld long Syne
T: Auld lang Syne
%R: air, march, reel
B: James Oswald "The Caledonian Pocket Companion" v.1 b.3 p.21 #2
S: https://ia800501.us.archive.org/18/items/caledonianpocket01rugg/caledonianpocket01rugg_bw.pdf
Z: 2020 John Chambers <jc:trillian.mit.edu>
N: Note that the ".n" is used to indicate a superscript 'n' above the dot.
M: C
L: 1/8
K: F
"_Slow"cd |\
f3g (fg)a2 | c2A2 TG2F2 | f2c2 f/g/a Tg>f | d3f d2 :: fg |\
a2F2 (Ac)dF | A2(GA) G3A |
c3d (cd)(cA) | (cA)(cd) f2(cB) |\
A2(GF) (AB)(cA) | (dc)(BA) GBAB | cAcd fcdA | c3d c2 :|
|: "_Vari.n"(cd) |\
(fc)a2 (ag)(gf) | (fc)(df) cA (GF) | f2F2 (f/g/a) (Tg>f) | d3f d2 :: f2 |\
(cA)(GF) F3G | (Af)(cA) G3A |
(cA)(cd) (c/A/c/)d/ (c/d/c/)A/ | cAcd f3g |\
(a/g/f) d2 (f/d/c) A>f | (d/c/A) F>A G3A | c3d (c/d/f/c/) dA | c3d c2 :|
